src/16/panel/bomi-panel.svg

<svg xmlns="http://www.w3.org/2000/svg" width="16" height="16" version="1.1">
 <defs>
  <style id="current-color-scheme" type="text/css">
   .ColorScheme-Text { color:#bebebe; } .ColorScheme-Highlight { color:#5294e2; }
  </style>
 </defs>
 <path style="fill:currentColor" class="ColorScheme-Text" d="M 8,1 C 7.6652,1.0021 7.331,1.0282 7,1.0781 V 9.002 C 7,9.556 6.554,10.002 6,10.002 5.446,10.002 5,9.556 5,9.002 V 1.6836 C 2.5598,2.8411 1.0031,5.2992 1,8 1,11.866 4.134,15 8,15 11.866,15 15,11.866 15,8 15,4.134 11.866,1 8,1 Z M 8.1875,5 8.1895,5.0059 C 8.1947,5.0057 8.1999,5.0057 8.2051,5.0059 8.2386,5.0064 8.2716,5.0164 8.3008,5.0352 L 11.896,7.3028 C 12.033,7.3892 12.033,7.6128 11.896,7.6992 L 8.3008,9.9688 C 8.1637,10.06 7.992,9.942 8,9.7617 V 5.2246 C 8.0008,5.1055 8.0827,5.0074 8.1875,5 Z"/>
</svg>

<svg xmlns="http://www.w3.org/2000/svg" width="16" height="16"><defs><style id="current-color-scheme" type="text/css"></style></defs><path d="M8 1a7.003 7.003 0 0 0-1 .078v7.924c0 .554-.446 1-1 1s-1-.446-1-1V1.684A7 7 0 0 0 1 8a7 7 0 1 0 7-7zm.188 4l.002.006a.203.203 0 0 1 .11.03l3.596 2.267c.137.086.137.31 0 .396L8.301 9.97c-.137.091-.309-.027-.301-.207V5.225c0-.12.083-.218.188-.225z" fill="currentColor" color="#bebebe"/></svg>
